X: 19
T:Cooley's
M:4/4
L:1/8
Q:180
K:Em
F2|"Em"EBBA B2 EB|B2 AB dBAG|
"D"(3FED AD BDAD|(3FED AD BAGF|
"Em"EB BA B2 EB|B2 AB defg|
"D"afdc dBAF|"(Bm7)"DEFD "Em"E2::
gf|"Em"eB (3BBB eBgf|eB (3BBB g-edB|
"D"A2 FA DAFA|BAFA defg|
"Em"eB (3BBB eBgf|eB (3BBB defg|
"D"afec d-BAF|"(Bm7)"DEFD- "Em"E2:|
